icons/svg/tourist/roller_coaster.svg

<?xml version="1.0" encoding="UTF-8" standalone="no"?>
<!-- Created with Inkscape (http://www.inkscape.org/) -->

<svg
   xmlns:dc="http://purl.org/dc/elements/1.1/"
   xmlns:cc="http://creativecommons.org/ns#"
   xmlns:rdf="http://www.w3.org/1999/02/22-rdf-syntax-ns#"
   xmlns:svg="http://www.w3.org/2000/svg"
   xmlns="http://www.w3.org/2000/svg"
   xmlns:sodipodi="http://sodipodi.sourceforge.net/DTD/sodipodi-0.dtd"
   xmlns:inkscape="http://www.inkscape.org/namespaces/inkscape"
   version="1.0"
   width="580"
   height="580"
   id="svg2"
   sodipodi:version="0.32"
   inkscape:version="0.48.4 r9939"
   sodipodi:docname="attraction_carousel.svg"
   inkscape:output_extension="org.inkscape.output.svg.inkscape">
  <metadata
     id="metadata2975">
    <rdf:RDF>
      <cc:Work
         rdf:about="">
        <dc:format>image/svg+xml</dc:format>
        <dc:type
           rdf:resource="http://purl.org/dc/dcmitype/StillImage" />
        <cc:license
           rdf:resource="http://web.resource.org/cc/PublicDomain" />
        <dc:language>en</dc:language>
        <dc:title></dc:title>
      </cc:Work>
    </rdf:RDF>
  </metadata>
  <sodipodi:namedview
     inkscape:window-height="1004"
     inkscape:window-width="1920"
     inkscape:pageshadow="2"
     inkscape:pageopacity="0.0"
     guidetolerance="10.0"
     gridtolerance="10.0"
     objecttolerance="10.0"
     borderopacity="1.0"
     bordercolor="#666666"
     pagecolor="#ffffff"
     id="base"
     inkscape:zoom="0.46083856"
     inkscape:cx="452.1175"
     inkscape:cy="420.13407"
     inkscape:window-x="1680"
     inkscape:window-y="0"
     inkscape:current-layer="svg2"
     showgrid="false"
     inkscape:window-maximized="1" />
  <defs
     id="defs4">
    <inkscape:perspective
       sodipodi:type="inkscape:persp3d"
       inkscape:vp_x="0 : 290 : 1"
       inkscape:vp_y="0 : 1000 : 0"
       inkscape:vp_z="580 : 290 : 1"
       inkscape:persp3d-origin="290 : 193.33333 : 1"
       id="perspective2441" />
    <inkscape:perspective
       id="perspective3452"
       inkscape:persp3d-origin="30 : 20 : 1"
       inkscape:vp_z="60 : 30 : 1"
       inkscape:vp_y="0 : 1000 : 0"
       inkscape:vp_x="0 : 30 : 1"
       sodipodi:type="inkscape:persp3d" />
    <symbol
       viewBox="244.5 110 489 219.9"
       id="symbol-university">
      <path
         id="path4460"
         d="M79,43l57,119c0,0,21-96,104-96s124,106,124,106l43-133l82-17L0,17L79,43z" />
      <path
         id="path4462"
         d="M94,176l-21,39"
         stroke-width="20"
         stroke="#000000"
         fill="none" />
      <path
         id="path4464"
         d="M300,19c0,10.5-22.6,19-50.5,19S199,29.5,199,19s22.6-19,50.5-19S300,8.5,300,19z" />
      <path
         id="path4466"
         d="M112,216l-16-38L64,88c0,0-9-8-4-35s16-24,16-24"
         stroke-width="20"
         stroke="#000000"
         ill="none" />
    </symbol>
    <inkscape:perspective
       id="perspective4471"
       inkscape:persp3d-origin="372.04724 : 350.78739 : 1"
       inkscape:vp_z="744.09448 : 526.18109 : 1"
       inkscape:vp_y="0 : 1000 : 0"
       inkscape:vp_x="0 : 526.18109 : 1"
       sodipodi:type="inkscape:persp3d" />
    <inkscape:perspective
       id="perspective4668"
       inkscape:persp3d-origin="6 : 4 : 1"
       inkscape:vp_z="12 : 6 : 1"
       inkscape:vp_y="0 : 1000 : 0"
       inkscape:vp_x="0 : 6 : 1"
       sodipodi:type="inkscape:persp3d" />
    <inkscape:perspective
       id="perspective4904"
       inkscape:persp3d-origin="16 : 10.666667 : 1"
       inkscape:vp_z="32 : 16 : 1"
       inkscape:vp_y="0 : 1000 : 0"
       inkscape:vp_x="0 : 16 : 1"
       sodipodi:type="inkscape:persp3d" />
  </defs>
  <g
     id="g1327">
    <path
       d="M 66.275,1.768 C 24.94,1.768 1.704,23.139 1.704,66.804 L 1.704,516.927 C 1.704,557.771 22.599,579.156 63.896,579.156 L 515.92,579.156 C 557.227,579.156 578.149,558.841 578.149,516.927 L 578.149,66.804 C 578.149,24.203 557.227,1.768 514.628,1.768 C 514.624,1.768 66.133,1.625 66.275,1.768 z "
       style="fill:#111;stroke:#eee;stroke-width:3.40799999"
       id="path1329" />
  </g>
  <rect
     y="-69.882286"
     x="207.25069"
     style="fill:none"
     width="376.44794"
     height="376.44794"
     id="rect3" />
  <path
     inkscape:connector-curvature="0"
     style="fill:none;stroke:#ffffff;stroke-width:38.71583176;stroke-linecap:round;stroke-linejoin:round;stroke-miterlimit:10;stroke-opacity:1"
     d="m 334.52321,340.33059 c -38.71583,17.42211 -89.04641,27.10107 -131.63383,27.10107 -79.36745,0 -145.184367,-60.00954 -145.184367,-135.50542 0,-75.49587 65.816917,-135.505396 145.184367,-135.505396 46.459,0 87.11063,19.357906 114.2117,50.330576"
     id="path3" />
  <path
     inkscape:connector-curvature="0"
     style="fill:#ffffff;fill-opacity:1"
     d="m 419.69803,260.96312 -125.82644,48.3948 c -11.61474,3.87158 -25.1653,-5.80738 -23.22951,-17.42213 3.8716,-21.2937 11.61477,-48.39479 32.90847,-58.07375 27.10107,-11.61475 65.81691,-27.10108 90.9822,-36.78005 7.74316,-3.87156 17.42211,-1.93579 21.29371,7.74318 l 11.61474,30.97266 c 5.80739,9.67896 1.9358,21.2937 -7.74317,25.16529 z"
     id="path5" />
  <circle
     transform="matrix(19.357916,0,0,19.357916,38.34711,38.347086)"
     sodipodi:ry="1"
     sodipodi:rx="1"
     sodipodi:cy="9"
     sodipodi:cx="14.9"
     style="fill:#ffffff;fill-opacity:1"
     cx="14.9"
     cy="9"
     r="1"
     id="circle7" />
  <circle
     transform="matrix(19.357916,0,0,19.357916,38.34711,38.347086)"
     sodipodi:ry="1"
     sodipodi:rx="1"
     sodipodi:cy="8"
     sodipodi:cx="17.5"
     style="fill:#ffffff;fill-opacity:1"
     cx="17.5"
     cy="8"
     r="1"
     id="circle9" />
  <circle
     transform="matrix(19.357916,0,0,19.357916,38.34711,38.347086)"
     sodipodi:ry="1"
     sodipodi:rx="1"
     sodipodi:cy="6.3000002"
     sodipodi:cx="21.700001"
     style="fill:#ffffff;fill-opacity:1"
     cx="21.700001"
     cy="6.3000002"
     r="1"
     id="circle11" />
  <circle
     transform="matrix(19.357916,0,0,19.357916,38.34711,38.347086)"
     sodipodi:ry="1"
     sodipodi:rx="1"
     sodipodi:cy="5.1999998"
     sodipodi:cx="24.6"
     style="fill:#ffffff;fill-opacity:1"
     cx="24.6"
     cy="5.1999998"
     r="1"
     id="circle13" />
  <path
     inkscape:connector-curvature="0"
     style="fill:#ffffff;fill-opacity:1"
     d="m 541.6529,142.87984 c -3.87158,0 -5.80737,0 -9.67895,1.93579 -29.03688,11.61474 -65.81692,25.16529 -92.91799,34.84424 -7.74317,3.87159 -13.55054,9.67896 -9.67896,19.35793 l 13.55053,30.97266 c 1.9358,9.67895 13.55055,15.48633 23.2295,11.61474 l 75.49587,-29.03686 v -69.6885 z"
     id="path15" />
  <path
     inkscape:connector-curvature="0"
     style="fill:#ffffff;fill-opacity:1"
     d="m 541.6529,231.92624 -212.93707,90.98222 c -9.67895,3.87157 -13.55054,15.48634 -9.67895,25.1653 3.87158,7.74315 9.67895,11.61474 17.42211,11.61474 1.9358,0 5.80739,0 7.74317,-1.9358 L 541.6529,274.51367 v -42.58743 z"
     id="path17" />
  <path
     inkscape:connector-curvature="0"
     style="fill:#ffffff;fill-opacity:1"
     d="M 77.062939,357.7527 V 502.93707 H 38.34711 V 309.35792 c 9.678955,19.35791 23.229491,34.84425 38.715829,48.39478 z m 212.937071,36.78004 v 108.40433 h 38.71582 V 384.85379 c -11.61475,3.87158 -25.16528,7.74316 -38.71582,9.67895 z m 193.57915,-75.49587 v 183.9002 h 38.71583 V 303.55054 l -38.71583,15.48633 z"
     id="path19" />
</svg>

<svg width="580" height="580" viewBox="0 0 580 580" fill="none" xmlns="http://www.w3.org/2000/svg">
<g clip-path="url(#clip0)">
<path d="M66.2751 1.76815C24.9401 1.76815 1.7041 23.1391 1.7041 66.8041V516.927C1.7041 557.771 22.5991 579.156 63.8961 579.156H515.92C557.227 579.156 578.149 558.841 578.149 516.927V66.8041C578.149 24.2031 557.227 1.76815 514.628 1.76815C514.624 1.76815 66.1331 1.62515 66.2751 1.76815Z" fill="#111111" stroke="#EEEEEE" stroke-width="3.408"/>
<path d="M334.523 340.331C295.807 357.753 245.477 367.432 202.889 367.432C123.522 367.432 57.7051 307.422 57.7051 231.926C57.7051 156.43 123.522 96.4209 202.889 96.4209C249.348 96.4209 290 115.779 317.101 146.751" stroke="white" stroke-width="38.7158" stroke-miterlimit="10" stroke-linecap="round" stroke-linejoin="round"/>
<path d="M419.698 260.963L293.872 309.358C282.257 313.229 268.706 303.55 270.642 291.936C274.514 270.642 282.257 243.541 303.55 233.862C330.652 222.247 369.367 206.761 394.533 197.082C402.276 193.21 411.955 195.146 415.826 204.825L427.441 235.798C433.249 245.477 429.377 257.091 419.698 260.963Z" fill="white"/>
<path d="M326.78 231.926C337.471 231.926 346.138 223.259 346.138 212.568C346.138 201.877 337.471 193.21 326.78 193.21C316.089 193.21 307.422 201.877 307.422 212.568C307.422 223.259 316.089 231.926 326.78 231.926Z" fill="white"/>
<path d="M377.111 212.568C387.802 212.568 396.469 203.902 396.469 193.21C396.469 182.519 387.802 173.853 377.111 173.853C366.42 173.853 357.753 182.519 357.753 193.21C357.753 203.902 366.42 212.568 377.111 212.568Z" fill="white"/>
<path d="M458.414 179.66C469.105 179.66 477.771 170.993 477.771 160.302C477.771 149.611 469.105 140.944 458.414 140.944C447.722 140.944 439.056 149.611 439.056 160.302C439.056 170.993 447.722 179.66 458.414 179.66Z" fill="white"/>
<path d="M514.552 158.366C525.243 158.366 533.91 149.699 533.91 139.008C533.91 128.317 525.243 119.65 514.552 119.65C503.861 119.65 495.194 128.317 495.194 139.008C495.194 149.699 503.861 158.366 514.552 158.366Z" fill="white"/>
<path d="M541.653 142.88C537.781 142.88 535.845 142.88 531.974 144.816C502.937 156.43 466.157 169.981 439.056 179.66C431.313 183.532 425.505 189.339 429.377 199.018L442.927 229.991C444.863 239.669 456.478 245.477 466.157 241.605L541.653 212.568V142.88V142.88Z" fill="white"/>
<path d="M541.653 231.926L328.716 322.908C319.037 326.78 315.166 338.395 319.037 348.074C322.909 355.817 328.716 359.689 336.459 359.689C338.395 359.689 342.267 359.689 344.203 357.753L541.653 274.514V231.926Z" fill="white"/>
<path d="M77.0625 357.753V502.937H38.3467V309.358C48.0256 328.716 61.5762 344.202 77.0625 357.753ZM290 394.533V502.937H328.715V384.854C317.101 388.726 303.55 392.597 290 394.533ZM483.579 319.037V502.937H522.295V303.551L483.579 319.037Z" fill="white"/>
</g>
<defs>
<clipPath id="clip0">
<path d="M0 0H580V580H0V0Z" fill="white"/>
</clipPath>
</defs>
</svg>
